src/assets/dollar-icon.svg

<svg width="13" height="12" viewBox="0 0 13 22" fill="none" xmlns="http://www.w3.org/2000/svg">
<path d="M8.66667 9.9H7.58333V5.5H9.75C10.0373 5.5 10.3129 5.61589 10.516 5.82218C10.7192 6.02847 10.8333 6.30826 10.8333 6.6C10.8333 6.89174 10.9475 7.17153 11.1506 7.37782C11.3538 7.58411 11.6293 7.7 11.9167 7.7C12.204 7.7 12.4795 7.58411 12.6827 7.37782C12.8859 7.17153 13 6.89174 13 6.6C13 5.72479 12.6576 4.88542 12.0481 4.26655C11.4386 3.64768 10.612 3.3 9.75 3.3H7.58333V1.1C7.58333 0.808262 7.4692 0.528472 7.26603 0.322183C7.06287 0.115892 6.78732 0 6.5 0C6.21268 0 5.93713 0.115892 5.73397 0.322183C5.5308 0.528472 5.41667 0.808262 5.41667 1.1V3.3H4.33333C3.18406 3.3 2.08186 3.76357 1.2692 4.58873C0.456546 5.41389 0 6.53305 0 7.7C0 8.86695 0.456546 9.98611 1.2692 10.8113C2.08186 11.6364 3.18406 12.1 4.33333 12.1H5.41667V16.5H3.25C2.96268 16.5 2.68713 16.3841 2.48397 16.1778C2.2808 15.9715 2.16667 15.6917 2.16667 15.4C2.16667 15.1083 2.05253 14.8285 1.84937 14.6222C1.6462 14.4159 1.37065 14.3 1.08333 14.3C0.796016 14.3 0.520466 14.4159 0.317301 14.6222C0.114137 14.8285 0 15.1083 0 15.4C0 16.2752 0.34241 17.1146 0.951903 17.7335C1.5614 18.3523 2.38805 18.7 3.25 18.7H5.41667V20.9C5.41667 21.1917 5.5308 21.4715 5.73397 21.6778C5.93713 21.8841 6.21268 22 6.5 22C6.78732 22 7.06287 21.8841 7.26603 21.6778C7.4692 21.4715 7.58333 21.1917 7.58333 20.9V18.7H8.66667C9.81594 18.7 10.9181 18.2364 11.7308 17.4113C12.5435 16.5861 13 15.467 13 14.3C13 13.133 12.5435 12.0139 11.7308 11.1887C10.9181 10.3636 9.81594 9.9 8.66667 9.9ZM5.41667 9.9H4.33333C3.7587 9.9 3.2076 9.66821 2.80127 9.25563C2.39494 8.84305 2.16667 8.28348 2.16667 7.7C2.16667 7.11652 2.39494 6.55695 2.80127 6.14437C3.2076 5.73179 3.7587 5.5 4.33333 5.5H5.41667V9.9ZM8.66667 16.5H7.58333V12.1H8.66667C9.2413 12.1 9.7924 12.3318 10.1987 12.7444C10.6051 13.1569 10.8333 13.7165 10.8333 14.3C10.8333 14.8835 10.6051 15.4431 10.1987 15.8556C9.7924 16.2682 9.2413 16.5 8.66667 16.5Z" fill="#696969"/>
</svg>

<svg width="13" height="12" viewBox="0 0 13 22" fill="none" xmlns="http://www.w3.org/2000/svg"><path d="M8.667 9.9H7.583V5.5H9.75c.287 0 .563.116.766.322.203.206.317.486.317.778 0 .292.114.572.318.778a1.075 1.075 0 001.532 0c.203-.206.317-.486.317-.778 0-.875-.342-1.715-.952-2.333A3.225 3.225 0 009.75 3.3H7.583V1.1c0-.292-.114-.572-.317-.778a1.075 1.075 0 00-1.532 0 1.109 1.109 0 00-.317.778v2.2H4.333A4.3 4.3 0 001.27 4.589 4.435 4.435 0 000 7.7c0 1.167.457 2.286 1.27 3.111A4.3 4.3 0 004.332 12.1h1.084v4.4H3.25c-.287 0-.563-.116-.766-.322a1.109 1.109 0 01-.317-.778c0-.292-.114-.572-.318-.778a1.075 1.075 0 00-1.532 0A1.109 1.109 0 000 15.4c0 .875.342 1.715.952 2.333.61.62 1.436.967 2.298.967h2.167v2.2c0 .292.114.572.317.778a1.075 1.075 0 001.532 0 1.11 1.11 0 00.317-.778v-2.2h1.084a4.3 4.3 0 003.064-1.289A4.434 4.434 0 0013 14.3a4.434 4.434 0 00-1.27-3.111A4.3 4.3 0 008.668 9.9zm-3.25 0H4.333a2.15 2.15 0 01-1.532-.644A2.217 2.217 0 012.167 7.7c0-.583.228-1.143.634-1.556A2.15 2.15 0 014.333 5.5h1.084v4.4zm3.25 6.6H7.583v-4.4h1.084a2.15 2.15 0 011.532.644c.406.413.634.973.634 1.556a2.22 2.22 0 01-.634 1.556 2.15 2.15 0 01-1.532.644z" fill="#696969"/></svg>
